X:16
T:Mister Stormalong
M:C|
L:1/8
Q:1/4=3D100
K:GMix
G2|\
E2F G2AB|c2dc G2AB|c2G2 c2G2|E6 cB|
A2A2 A2DE|F2A2 A4|{F}A2 {F}A2 {F}A2 GF|E2G2 G2||
